**harmony	**harte	**kern	**silbe	**kern	**silbe	**rhyme	**timestamp	**phrase	**leadinstrument
*M4/4	*M4/4	*ICvox	*	*ICvox	*	*	*	*	*
*	*	*VRlead	*	*VRharmonize	*	*	*	*	*
*	*	*Hstimme	*	*Nstimme	*	*	*	*	*
*C:	*C:	*C:	*	*C:	*	*	*C:	*C:	*C:
*	*	*M4/4	*	*M4/4	*	*	*	*	*
*	*	*clefG2	*	*clefF4	*	*	*	*	*
1r;	1r	r;	.	r;	.	.	0	.	r
=1	=1	=1	=1	=1	=1	=1	=1	=1	=1
*>Letter>A	*>Letter>A	*>Letter>A	*>Letter>A	*>Letter>A	*>Letter>A	*>Letter>A	*>Letter>A	*>Letter>A	*>Letter>A
*>Label>Intro	*>Label>Intro	*>Label>Intro	*>Label>Intro	*>Label>Intro	*>Label>Intro	*>Label>Intro	*>Label>Intro	*>Label>Intro	*>Label>Intro
2CM	C:maj	1r	.	1r	.	.	1.421	newline	keyboard
2GM	G:maj/4	.	.	.	.	.	2.4	.	keyboard
=2	=2	=2	=2	=2	=2	=2	=2	=2	=2
2Am	A:min/b3	1r	.	1r	.	.	3.379	.	keyboard
2GM	G:maj/4	.	.	.	.	.	4.357	.	keyboard
=3	=3	=3	=3	=3	=3	=3	=3	=3	=3
1Cmm	C:min7	1r	.	1r	.	.	5.336	.	keyboard
=4	=4	=4	=4	=4	=4	=4	=4	=4	=4
1Cmm	C:min7	1r	.	1r	.	.	7.294	.	keyboard
=5	=5	=5	=5	=5	=5	=5	=5	=5	=5
1FM	F:maj	1r	.	1r	.	.	9.251	.	keyboard
=6	=6	=6	=6	=6	=6	=6	=6	=6	=6
1FM	F:maj	1r	.	1r	.	.	11.209	.	keyboard
=7	=7	=7	=7	=7	=7	=7	=7	=7	=7
1CM	C:maj	1r	.	1r	.	.	13.166	.	keyboard
=8	=8	=8	=8	=8	=8	=8	=8	=8	=8
1CM	C:maj	2r	.	1r	.	.	15.123	.	keyboard
.	.	4r	.	.	.	.	.	.	.
.	.	16f	My	.	.	.	.	.	.
.	.	8.g	_	.	.	.	.	.	.
=9	=9	=9	=9	=9	=9	=9	=9	=9	=9
*>Letter>B	*>Letter>B	*>Letter>B	*>Letter>B	*>Letter>B	*>Letter>B	*>Letter>B	*>Letter>B	*>Letter>B	*>Letter>B
*>Label>Verse	*>Label>Verse	*>Label>Verse	*>Label>Verse	*>Label>Verse	*>Label>Verse	*>Label>Verse	*>Label>Verse	*>Label>Verse	*>Label>Verse
1Cm	C:min	16g	friends	1r	.	.	17.081	newline	voice
.	.	8.f	_	.	.	.	.	.	.
.	.	8fQ	_	.	.	.	.	.	.
.	.	8~e	won-	.	.	.	.	.	.
.	.	8e-	-der	.	.	.	.	.	.
.	.	8e-	why	.	.	A	.	.	.
.	.	8d	I	.	.	.	.	.	.
.	.	8d	call	.	.	.	.	.	.
.	.	8d	you	.	.	.	.	.	.
=10	=10	=10	=10	=10	=10	=10	=10	=10	=10
*	*	*clefF4	*	*	*	*	*	*	*
1Cm	C:min	8d	all	1r	.	.	19.042	.	voice
.	.	8e-	the	.	.	.	.	.	.
.	.	8c	time,	.	.	A	.	.	.
.	.	8G	_	.	.	.	.	.	.
.	.	8G	what	.	.	.	.	.	.
.	.	8B-	can	.	.	.	.	.	.
.	.	8G	I	.	.	.	.	.	.
.	.	[8B-	say	.	.	B	.	.	.
=11	=11	=11	=11	=11	=11	=11	=11	=11	=11
1Fm	F:min	8B-]	_	1r	.	.	21.003	.	voice
.	.	16G	_	.	.	.	.	.	.
.	.	16F	_	.	.	.	.	.	.
.	.	8E-	_	.	.	.	.	.	.
.	.	8r	.	.	.	.	.	.	.
.	.	4r	.	.	.	.	.	.	.
.	.	4r	.	.	.	.	.	.	.
=12	=12	=12	=12	=12	=12	=12	=12	=12	=12
1Fm	F:min	1r	.	1r	.	.	22.964	.	voice
=13	=13	=13	=13	=13	=13	=13	=13	=13	=13
1A-M	A-:maj	4e-	I	1r	.	.	24.925	.	voice
.	.	4e-	don't	.	.	.	.	.	.
.	.	8e-	feel	.	.	.	.	.	.
.	.	8c	the	.	.	.	.	.	.
.	.	8e-	need	.	.	.	.	.	.
.	.	8c	to	.	.	.	.	.	.
=14	=14	=14	=14	=14	=14	=14	=14	=14	=14
1B-M	B-:maj	4f	give	1r	.	.	26.886	.	voice
.	.	4f	such	.	.	.	.	.	.
.	.	8g	se-	.	.	.	.	.	.
.	.	8f	-crets	.	.	.	.	.	.
.	.	8e-	a-	.	.	.	.	.	.
.	.	16f	-way	.	.	B	.	.	.
.	.	16e-	_	.	.	.	.	.	.
=15	=15	=15	=15	=15	=15	=15	=15	=15	=15
1CM	C:maj(9)	[1c	_	1r	.	.	28.847	.	voice
=16	=16	=16	=16	=16	=16	=16	=16	=16	=16
1CM	C:maj(9)	2c_	_	1r	.	.	30.808	.	voice
.	.	8c]	_	.	.	.	.	.	.
.	.	8r	.	.	.	.	.	.	.
.	.	8r	.	.	.	.	.	.	.
.	.	8g	You	.	.	.	.	.	.
=17	=17	=17	=17	=17	=17	=17	=17	=17	=17
1Cm	C:min	16g	think	1r	.	.	32.769	newline	voice
.	.	8.f	_	.	.	.	.	.	.
.	.	8fQ	_	.	.	.	.	.	.
.	.	8e-	may-	.	.	.	.	.	.
.	.	8e-	-be	.	.	.	.	.	.
.	.	8e-	I	.	.	.	.	.	.
.	.	4d	need	.	.	.	.	.	.
.	.	16e-	help	.	.	.	.	.	.
.	.	16d	_	.	.	.	.	.	.
=18	=18	=18	=18	=18	=18	=18	=18	=18	=18
1Cm	C:min	8c	_	1r	.	.	34.753	.	voice
.	.	8r	.	.	.	.	.	.	.
.	.	8G	though	.	.	.	.	.	.
.	.	8G	I	.	.	.	.	.	.
.	.	8B-	know	.	.	.	.	.	.
.	.	8B-	I'm	.	.	.	.	.	.
.	.	8G	_	.	.	.	.	.	.
.	.	[8B-	right	.	.	A	.	.	.
=19	=19	=19	=19	=19	=19	=19	=19	=19	=19
1Fm	F:min	8B-]	_	1r	.	.	36.736	.	voice
.	.	8c	_	.	.	.	.	.	.
.	.	4r	.	.	.	.	.	.	.
.	.	4r	.	.	.	.	.	.	.
.	.	8G	all	.	.	.	.	.	.
.	.	8F	right	.	.	A	.	.	.
=20	=20	=20	=20	=20	=20	=20	=20	=20	=20
1Fm	F:min	2r	.	1r	.	.	38.719	.	voice
.	.	4r	.	.	.	.	.	.	.
.	.	8r	.	.	.	.	.	.	.
.	.	8c	I'm	.	.	.	.	.	.
=21	=21	=21	=21	=21	=21	=21	=21	=21	=21
1A-M	A-:maj	4e-	just	1r	.	.	40.703	.	voice
.	.	8e-	bet-	.	.	.	.	.	.
.	.	8c	-ter	.	.	.	.	.	.
.	.	4e-	off	.	.	.	.	.	.
.	.	8e-	not	.	.	.	.	.	.
.	.	8f	l-	.	.	.	.	.	.
=22	=22	=22	=22	=22	=22	=22	=22	=22	=22
1B-M	B-:maj	8f	-lis-	1r	.	.	42.686	.	voice
.	.	8f	-ten-	.	.	.	.	.	.
.	.	8f	-ing	.	.	.	.	.	.
.	.	8f	to	.	.	.	.	.	.
.	.	8fq	_	.	.	.	.	.	.
.	.	8g	friends'	.	.	.	.	.	.
.	.	8f	_	.	.	.	.	.	.
.	.	8e-	ad-	.	.	.	.	.	.
.	.	8fq	-vice	.	.	A	.	.	.
.	.	8e-	_	.	.	.	.	.	.
=23	=23	=23	=23	=23	=23	=23	=23	=23	=23
1CM	C:maj(9)	[1c	_	1r	.	.	44.669	.	voice
=24	=24	=24	=24	=24	=24	=24	=24	=24	=24
1CM	C:maj(9)	2c]	_	1r	.	.	46.653	.	voice
.	.	8r	.	.	.	.	.	.	.
.	.	8g	When	.	.	.	.	.	.
.	.	8g	they	.	.	.	.	.	.
.	.	8g	in-	.	.	.	.	.	.
=25	=25	=25	=25	=25	=25	=25	=25	=25	=25
*>Letter>C	*>Letter>C	*>Letter>C	*>Letter>C	*>Letter>C	*>Letter>C	*>Letter>C	*>Letter>C	*>Letter>C	*>Letter>C
*>Label>Prechorus	*>Label>Prechorus	*>Label>Prechorus	*>Label>Prechorus	*>Label>Prechorus	*>Label>Prechorus	*>Label>Prechorus	*>Label>Prechorus	*>Label>Prechorus	*>Label>Prechorus
2Fm	F:sus2	8g	-sist	1r	.	C	48.636	newline	voice
.	.	4r	.	.	.	.	.	.	.
.	.	8c	on	.	.	.	.	.	.
2Fm	F:min	8e-	kno-	.	.	.	49.62	.	voice
.	.	8f	-wing	.	.	.	.	.	.
.	.	8g	my	.	.	.	.	.	.
.	.	16g	bliss	.	.	C	.	.	.
.	.	16a-	_	.	.	.	.	.	.
=26	=26	=26	=26	=26	=26	=26	=26	=26	=26
1Gmm	G:min7/5	4g	_	1r	.	.	50.603	.	voice
.	.	4r	.	.	.	.	.	.	.
.	.	2r	.	.	.	.	.	.	.
=27	=27	=27	=27	=27	=27	=27	=27	=27	=27
1Fmm	F:min9	4r	.	1r	.	.	52.57	.	voice
.	.	8r	.	.	.	.	.	.	.
.	.	8c	I	.	.	.	.	.	.
.	.	8e-	tell	.	.	.	.	.	.
.	.	8f	them	.	.	.	.	.	.
.	.	8g	_	.	.	.	.	.	.
.	.	8g	this	.	.	C	.	.	.
=28	=28	=28	=28	=28	=28	=28	=28	=28	=28
1Gmm	G:min7/5	2r	.	1r	.	.	54.536	.	voice
.	.	8c	When	.	.	.	.	.	.
.	.	8e-	they	.	.	.	.	.	.
.	.	8e-	wan-	.	.	.	.	.	.
.	.	8c	-na	.	.	.	.	.	.
=29	=29	=29	=29	=29	=29	=29	=29	=29	=29
1Fmm	F:min9	4e-	know	1r	.	.	56.503	.	voice
.	.	8e-	what	.	.	.	.	.	.
.	.	8c	the	.	.	.	.	.	.
.	.	8e-	rea	.	.	.	.	.	.
.	.	8f	_	.	.	.	.	.	.
.	.	8g	son	.	.	.	.	.	.
.	.	16g	is	.	.	C	.	.	.
.	.	16a-	_	.	.	.	.	.	.
=30	=30	=30	=30	=30	=30	=30	=30	=30	=30
1Gmm	G:min7/5	4g	_	1r	.	.	58.47	.	voice
.	.	4r	.	.	.	.	.	.	.
.	.	8r	.	.	.	.	.	.	.
.	.	8c	I	.	.	.	.	.	.
.	.	8e-	on-	.	.	.	.	.	.
.	.	8c	-ly	.	.	.	.	.	.
=31	=31	=31	=31	=31	=31	=31	=31	=31	=31
*	*	*	*	*clefG2	*	*	*	*	*
1Fmm	F:min9	4e-	smile	1r	.	.	60.437	.	voice
.	.	8e-	when	.	.	.	.	.	.
.	.	8c	I	.	.	.	.	.	.
.	.	4e-	lie,	.	.	A	.	.	.
.	.	8c	then	.	.	.	.	.	.
.	.	8e-	I	.	.	.	.	.	.
=32	=32	=32	=32	=32	=32	=32	=32	=32	=32
.	.	8fq	_	.	.	.	.	.	.
2FM	F:maj/2	8g	tell	2r	.	.	62.403	.	voice
.	.	8g	them	.	.	.	.	.	.
.	.	[4g	why	.	.	A	.	.	.
2GM	G:maj	8g]	_	8r	.	.	63.387	.	voice
.	.	8r	.	8d 8g 8b	Be-	.	.	.	.
.	.	4r	.	8d 8g 8b	-cause	.	.	.	.
.	.	.	.	8e 8g 8cc	your	.	.	.	.
=33	=33	=33	=33	=33	=33	=33	=33	=33	=33
*>Letter>D	*>Letter>D	*>Letter>D	*>Letter>D	*>Letter>D	*>Letter>D	*>Letter>D	*>Letter>D	*>Letter>D	*>Letter>D
*>Label>Chorus	*>Label>Chorus	*>Label>Chorus	*>Label>Chorus	*>Label>Chorus	*>Label>Chorus	*>Label>Chorus	*>Label>Chorus	*>Label>Chorus	*>Label>Chorus
2CM	C:maj	4r	.	8e 8g 8cc	kiss	.	64.37	newline	voice
.	.	.	.	8r	.	.	.	.	.
.	.	8e	Your	4r	.	.	.	.	.
.	.	8d	kiss	.	.	C	.	.	.
2GM	G:maj/4	4r	.	2r	.	.	65.359	.	voice
.	.	8d	is	.	.	.	.	.	.
.	.	[8c	on	.	.	.	.	.	.
=34	=34	=34	=34	=34	=34	=34	=34	=34	=34
2Am	A:min/b3	4c]	_	2r	.	.	66.347	.	voice
.	.	8cq	_	.	.	.	.	.	.
.	.	8d	my	.	.	.	.	.	.
.	.	8d	list	.	.	C	.	.	.
2GM	G:maj/4	8r	.	8r	.	.	67.336	.	voice
.	.	8d	be-	8B 8d 8g	Be-	.	.	.	.
.	.	8d	-cause	8B 8d 8g	-cause	.	.	.	.
.	.	8e-	your	8B- 8e- 8g	your	.	.	.	.
=35	=35	=35	=35	=35	=35	=35	=35	=35	=35
1Cmm	C:min7	8e-	kiss	8B- 8e- 8g	kiss	C	68.325	.	voice
.	.	8r	.	8r	.	.	.	.	.
.	.	8g	your	4r	.	.	.	.	.
.	.	8f	kiss	.	.	C	.	.	.
.	.	4r	.	2r	.	.	.	.	.
.	.	8d	is	.	.	.	.	.	.
.	.	[8e-	on	.	.	.	.	.	.
=36	=36	=36	=36	=36	=36	=36	=36	=36	=36
1Cmm	C:min7	4e-]	_	2r	.	.	70.302	.	voice
.	.	8f	my	.	.	.	.	.	.
.	.	16g	list,	.	.	C	.	.	.
.	.	16f	_	.	.	.	.	.	.
.	.	8e-	_	8r	.	.	.	.	.
.	.	8g	be-	8c 8a	be-	.	.	.	.
.	.	8g	-cause	8c 8a	-cause	.	.	.	.
.	.	8g	your	8c 8a	your	.	.	.	.
=37	=37	=37	=37	=37	=37	=37	=37	=37	=37
1FM	F:maj	16g	kiss	4c 4f 4a	kiss	C	72.28	.	voice
.	.	8.f	_	.	.	.	.	.	.
.	.	8f	is	8c 8f 8a	is	.	.	.	.
.	.	[8f	on	[8c [8f [8a	on	.	.	.	.
.	.	8f]	_	8c] 8f] 8a]	_	.	.	.	.
.	.	8c	my	8c 8f 8a	my	.	.	.	.
.	.	8c	list	8c 8f 8a	list	C	.	.	.
.	.	8r	.	8r	.	.	.	.	.
=38	=38	=38	=38	=38	=38	=38	=38	=38	=38
1FM	F:maj	4r	.	1r	.	.	74.257	.	voice
.	.	8B	of	.	.	.	.	.	.
.	.	8c	the	.	.	.	.	.	.
.	.	8e	best	.	.	.	.	.	.
.	.	8g	things	.	.	.	.	.	.
.	.	8e	in	.	.	.	.	.	.
.	.	8dq	_	.	.	.	.	.	.
.	.	8g	life	.	.	A	.	.	.
=39	=39	=39	=39	=39	=39	=39	=39	=39	=39
1CM	C:maj	[2.e	_	4.B 4.d 4.g	Ah	.	76.234	.	voice
.	.	.	.	[8c [8e [8g	_	.	.	.	.
.	.	.	.	4c] 4e] 4g]	_	.	.	.	.
.	.	8e_	_	4B 4d 4g	_	.	.	.	.
.	.	16.e]	_	.	.	.	.	.	.
.	.	32d	_	.	.	.	.	.	.
=40	=40	=40	=40	=40	=40	=40	=40	=40	=40
1CM	C:maj	16.e	_	8r	.	.	78.212	.	voice
.	.	32d	_	.	.	.	.	.	.
.	.	16.e	_	8B 8d	ah!	.	.	.	.
.	.	32d	_	.	.	.	.	.	.
.	.	8e	_	8c 8e	_	.	.	.	.
.	.	8r	.	[8d [8f	_	.	.	.	.
.	.	8r	.	8d] 8f]	_	.	.	.	.
.	.	8d	Be-	8B 8d 8g	Be-	.	.	.	.
.	.	8d	-cause	8B 8d 8g	-cause	.	.	.	.
.	.	8e	your	8c 8e 8g	your	.	.	.	.
=41	=41	=41	=41	=41	=41	=41	=41	=41	=41
*>Letter>D	*>Letter>D	*>Letter>D	*>Letter>D	*>Letter>D	*>Letter>D	*>Letter>D	*>Letter>D	*>Letter>D	*>Letter>D
*>Label>Chorus	*>Label>Chorus	*>Label>Chorus	*>Label>Chorus	*>Label>Chorus	*>Label>Chorus	*>Label>Chorus	*>Label>Chorus	*>Label>Chorus	*>Label>Chorus
2CM	C:maj	4r	.	8e 8g 8cc	kiss	.	80.189	newline	voice
.	.	.	.	8r	.	.	.	.	.
.	.	8e	Your	4r	.	.	.	.	.
.	.	8d	kiss	.	.	C	.	.	.
2GM	G:maj/4	4r	.	2r	.	.	81.176	.	voice
.	.	8d	is	.	.	.	.	.	.
.	.	[8c	on	.	.	.	.	.	.
=42	=42	=42	=42	=42	=42	=42	=42	=42	=42
2Am	A:min/b3	4c]	_	2r	.	.	82.163	.	voice
.	.	8cq	_	.	.	.	.	.	.
.	.	8d	my	.	.	.	.	.	.
.	.	8d	list	.	.	C	.	.	.
2GM	G:maj/4	8r	.	8r	.	.	83.151	.	voice
.	.	8d	be-	8B 8d 8g	Be-	.	.	.	.
.	.	8d	-cause	8B 8d 8g	-cause	.	.	.	.
.	.	8e-	your	8B- 8e- 8g	your	.	.	.	.
=43	=43	=43	=43	=43	=43	=43	=43	=43	=43
1Cmm	C:min7	8e-	kiss	8B- 8e- 8g	kiss	C	84.138	.	voice
.	.	8r	.	8r	.	.	.	.	.
.	.	8g	your	4r	.	.	.	.	.
.	.	8f	kiss	.	.	C	.	.	.
.	.	4r	.	2r	.	.	.	.	.
.	.	8d	I	.	.	.	.	.	.
.	.	[8e-	can't	.	.	.	.	.	.
=44	=44	=44	=44	=44	=44	=44	=44	=44	=44
1Cmm	C:min7	4e-]	_	2r	.	.	86.112	.	voice
.	.	8f	re-	.	.	.	.	.	.
.	.	16g	-sist,	.	.	C	.	.	.
.	.	16f	_	.	.	.	.	.	.
.	.	8e-	_	8r	.	.	.	.	.
.	.	8g	be-	8c 8a	be-	.	.	.	.
.	.	8g	-cause	8c 8a	-cause	.	.	.	.
.	.	8g	your	8c 8a	your	.	.	.	.
=45	=45	=45	=45	=45	=45	=45	=45	=45	=45
1FM	F:maj	16g	kiss	4c 4f 4a	kiss	C	88.086	.	voice
.	.	8.f	_	.	.	.	.	.	.
.	.	8f	is	8c 8f 8a	is	.	.	.	.
.	.	[8f	what	[8c [8f [8a	what	.	.	.	.
.	.	8f]	_	8c] 8f] 8a]	_	.	.	.	.
.	.	8c	I	8c 8f 8a	I	.	.	.	.
.	.	8c	miss	8c 8f 8a	miss	C	.	.	.
.	.	8r	.	8r	.	.	.	.	.
=46	=46	=46	=46	=46	=46	=46	=46	=46	=46
1FM	F:maj	4r	.	1r	.	.	90.06	.	voice
.	.	8B	when	.	.	.	.	.	.
.	.	8c	I	.	.	.	.	.	.
.	.	8e	turn	.	.	.	.	.	.
.	.	8g	out	.	.	.	.	.	.
.	.	8e	the	.	.	.	.	.	.
.	.	8dq	_	.	.	.	.	.	.
.	.	8g	light	.	.	A	.	.	.
=47	=47	=47	=47	=47	=47	=47	=47	=47	=47
1CM	C:maj	[1e	_	1r	.	.	92.034	.	voice
=48	=48	=48	=48	=48	=48	=48	=48	=48	=48
1CM	C:maj	2e]	_	1r	.	.	94.009	.	voice
.	.	8r	.	.	.	.	.	.	.
.	.	8g	I	.	.	.	.	.	.
.	.	4g	go	.	.	.	.	.	.
=49	=49	=49	=49	=49	=49	=49	=49	=49	=49
*>Letter>B	*>Letter>B	*>Letter>B	*>Letter>B	*>Letter>B	*>Letter>B	*>Letter>B	*>Letter>B	*>Letter>B	*>Letter>B
*>Label>Verse	*>Label>Verse	*>Label>Verse	*>Label>Verse	*>Label>Verse	*>Label>Verse	*>Label>Verse	*>Label>Verse	*>Label>Verse	*>Label>Verse
1Cm	C:min	16b-	cra	1r	.	.	95.983	newline	voice
.	.	8.g	_	.	.	.	.	.	.
.	.	16g	zy	.	.	.	.	.	.
.	.	8.f	_	.	.	.	.	.	.
.	.	8~fq	_	.	.	.	.	.	.
.	.	8~e-	won-	.	.	.	.	.	.
.	.	8~e-	-der-	.	.	.	.	.	.
.	.	8~e-	-ing	.	.	.	.	.	.
.	.	16d	what	.	.	.	.	.	.
.	.	16c	_	.	.	.	.	.	.
=50	=50	=50	=50	=50	=50	=50	=50	=50	=50
1Cm	C:min	8r	.	1r	.	.	97.957	.	voice
.	.	8c	there	.	.	.	.	.	.
.	.	8c	real-	.	.	.	.	.	.
.	.	8G	-ly	.	.	.	.	.	.
.	.	8B-	is	.	.	.	.	.	.
.	.	8G	to	.	.	.	.	.	.
.	.	[4B-	see	.	.	D	.	.	.
=51	=51	=51	=51	=51	=51	=51	=51	=51	=51
1Fm	F:min	8B-]	_	1r	.	.	99.932	.	voice
.	.	16G	_	.	.	.	.	.	.
.	.	16F	_	.	.	.	.	.	.
.	.	4E-	_	.	.	.	.	.	.
.	.	8Fq	_	.	.	.	.	.	.
.	.	8G	_	.	.	.	.	.	.
.	.	8Fq	_	.	.	.	.	.	.
.	.	8G	_	.	.	.	.	.	.
.	.	4r	.	.	.	.	.	.	.
=52	=52	=52	=52	=52	=52	=52	=52	=52	=52
1Fm	F:min	2r	.	1r	.	.	101.906	.	voice
.	.	4r	.	.	.	.	.	.	.
.	.	8c	Did	.	.	.	.	.	.
.	.	8e-	the	.	.	.	.	.	.
=53	=53	=53	=53	=53	=53	=53	=53	=53	=53
1A-M	A-:maj	4e-	night	1r	.	.	103.88	.	voice
.	.	4e-	just	.	.	.	.	.	.
.	.	8e-	take	.	.	.	.	.	.
.	.	8c	up	.	.	.	.	.	.
.	.	8g	your	.	.	.	.	.	.
.	.	8f	time	.	.	.	.	.	.
=54	=54	=54	=54	=54	=54	=54	=54	=54	=54
1B-M	B-:maj	4r	.	1r	.	.	105.855	.	voice
.	.	8B-	Cuz'	.	.	.	.	.	.
.	.	8B-	it	.	.	.	.	.	.
.	.	6g	means	.	.	.	.	.	.
.	.	6f	more	.	.	.	.	.	.
.	.	6e-	to	.	.	.	.	.	.
=55	=55	=55	=55	=55	=55	=55	=55	=55	=55
1CM	C:maj(9)	16f	me	1r	.	D	107.829	.	voice
.	.	16e-	_	.	.	.	.	.	.
.	.	[8c	_	.	.	.	.	.	.
.	.	2.c_	_	.	.	.	.	.	.
=56	=56	=56	=56	=56	=56	=56	=56	=56	=56
1CM	C:maj(9)	2c_	_	1r	.	.	109.803	.	voice
.	.	8c]	_	.	.	.	.	.	.
.	.	8r	.	.	.	.	.	.	.
.	.	16f	Some	.	.	.	.	.	.
.	.	8.g	_	.	.	.	.	.	.
=57	=57	=57	=57	=57	=57	=57	=57	=57	=57
1Cm	C:min	16g	times	1r	.	.	111.778	newline	voice
.	.	8.f	_	.	.	.	.	.	.
.	.	8~gq	_	.	.	.	.	.	.
.	.	8f	I	.	.	.	.	.	.
.	.	8e-	for-	.	.	.	.	.	.
.	.	8e-	-get	.	.	.	.	.	.
.	.	8d	what	.	.	.	.	.	.
.	.	8d	I'm	.	.	.	.	.	.
.	.	8c	do-	.	.	.	.	.	.
=58	=58	=58	=58	=58	=58	=58	=58	=58	=58
1Cm	C:min	8c	-ing,	1r	.	.	113.747	.	voice
.	.	8G	I	.	.	.	.	.	.
.	.	8G	don't	.	.	.	.	.	.
.	.	8G	for-	.	.	.	.	.	.
.	.	8B-	-get	.	.	.	.	.	.
.	.	8B-	what	.	.	.	.	.	.
.	.	8G	I	.	.	.	.	.	.
.	.	[8B-	want	.	.	E	.	.	.
=59	=59	=59	=59	=59	=59	=59	=59	=59	=59
1Fm	F:min	8B-]	_	1r	.	.	115.717	.	voice
.	.	8c	_	.	.	.	.	.	.
.	.	4r	.	.	.	.	.	.	.
.	.	4r	.	.	.	.	.	.	.
.	.	8G	I	.	.	.	.	.	.
.	.	8F	want	.	.	E	.	.	.
=60	=60	=60	=60	=60	=60	=60	=60	=60	=60
1Fm	F:min	2r	.	1r	.	.	117.687	.	voice
.	.	4r	.	.	.	.	.	.	.
.	.	8r	.	.	.	.	.	.	.
.	.	8c	Re-	.	.	.	.	.	.
=61	=61	=61	=61	=61	=61	=61	=61	=61	=61
1A-M	A-:maj	4e-	-gret	1r	.	.	119.657	.	voice
.	.	8e-	what	.	.	.	.	.	.
.	.	8c	I've	.	.	.	.	.	.
.	.	4e-	done,	.	.	.	.	.	.
.	.	8e-	re-	.	.	.	.	.	.
.	.	8f	-gret	.	.	.	.	.	.
=62	=62	=62	=62	=62	=62	=62	=62	=62	=62
1B-M	B-:maj	8f	you	1r	.	.	121.626	.	voice
.	.	4r	.	.	.	.	.	.	.
.	.	8B-	I	.	.	.	.	.	.
.	.	8g	could-	.	.	.	.	.	.
.	.	8f	-n't	.	.	.	.	.	.
.	.	8e-	go	.	.	.	.	.	.
.	.	16f	on	.	.	E	.	.	.
.	.	16e-	_	.	.	.	.	.	.
=63	=63	=63	=63	=63	=63	=63	=63	=63	=63
1CM	C:maj(9)	[1c	_	1r	.	.	123.596	.	voice
=64	=64	=64	=64	=64	=64	=64	=64	=64	=64
1CM	C:maj(9)	4.c]	_	1r	.	.	125.566	.	voice
.	.	8r	.	.	.	.	.	.	.
.	.	8g	But	.	.	.	.	.	.
.	.	8g	if	.	.	.	.	.	.
.	.	8g	you	.	.	.	.	.	.
.	.	8g	in-	.	.	.	.	.	.
=65	=65	=65	=65	=65	=65	=65	=65	=65	=65
*>Letter>C	*>Letter>C	*>Letter>C	*>Letter>C	*>Letter>C	*>Letter>C	*>Letter>C	*>Letter>C	*>Letter>C	*>Letter>C
*>Label>Prechorus	*>Label>Prechorus	*>Label>Prechorus	*>Label>Prechorus	*>Label>Prechorus	*>Label>Prechorus	*>Label>Prechorus	*>Label>Prechorus	*>Label>Prechorus	*>Label>Prechorus
2Fm	F:sus2	8g	-sist	1r	.	C	127.535	newline	voice
.	.	4r	.	.	.	.	.	.	.
.	.	8c	on	.	.	.	.	.	.
2Fm	F:min	8e-	kno-	.	.	.	128.523	.	voice
.	.	8f	-wing	.	.	.	.	.	.
.	.	8g	my	.	.	.	.	.	.
.	.	16g	bliss	.	.	C	.	.	.
.	.	16a-	_	.	.	.	.	.	.
=66	=66	=66	=66	=66	=66	=66	=66	=66	=66
1Gmm	G:min7/5	4g	_	1r	.	.	129.51	.	voice
.	.	4r	.	.	.	.	.	.	.
.	.	2r	.	.	.	.	.	.	.
=67	=67	=67	=67	=67	=67	=67	=67	=67	=67
1Fmm	F:min9	4r	.	1r	.	.	131.485	.	voice
.	.	8g	I'll	.	.	.	.	.	.
.	.	8b-	tell	.	.	.	.	.	.
.	.	8g	_	.	.	.	.	.	.
.	.	8g	you	.	.	.	.	.	.
.	.	8f	_	.	.	.	.	.	.
.	.	8g	this	.	.	C	.	.	.
=68	=68	=68	=68	=68	=68	=68	=68	=68	=68
1Gmm	G:min7/5	2r	.	1r	.	.	133.46	.	voice
.	.	8c	If	.	.	.	.	.	.
.	.	8e-	you	.	.	.	.	.	.
.	.	8e-	wan-	.	.	.	.	.	.
.	.	8c	-na	.	.	.	.	.	.
=69	=69	=69	=69	=69	=69	=69	=69	=69	=69
1Fmm	F:min9	4e-	know	1r	.	.	135.435	.	voice
.	.	8e-	what	.	.	.	.	.	.
.	.	8c	the	.	.	.	.	.	.
.	.	8e-	rea	.	.	.	.	.	.
.	.	8f	_	.	.	.	.	.	.
.	.	8g	son	.	.	.	.	.	.
.	.	16g	is	.	.	C	.	.	.
.	.	16a-	_	.	.	.	.	.	.
=70	=70	=70	=70	=70	=70	=70	=70	=70	=70
1Gmm	G:min7/5	16g	_	1r	.	.	137.409	.	voice
.	.	16f	_	.	.	.	.	.	.
.	.	8g	_	.	.	.	.	.	.
.	.	4r	.	.	.	.	.	.	.
.	.	8r	.	.	.	.	.	.	.
.	.	8c	I	.	.	.	.	.	.
.	.	8e-	on-	.	.	.	.	.	.
.	.	8c	-ly	.	.	.	.	.	.
=71	=71	=71	=71	=71	=71	=71	=71	=71	=71
1Fmm	F:min9	4e-	smile	1r	.	.	139.384	.	voice
.	.	8e-	when	.	.	.	.	.	.
.	.	8c	I	.	.	.	.	.	.
.	.	4e-	lie,	.	.	A	.	.	.
.	.	8c	then	.	.	.	.	.	.
.	.	8e-	I	.	.	.	.	.	.
=72	=72	=72	=72	=72	=72	=72	=72	=72	=72
.	.	8fq	_	.	.	.	.	.	.
2FM	F:maj/2	8g	tell	2r	.	.	141.359	.	voice
.	.	8g	you	.	.	.	.	.	.
.	.	[4g	why	.	.	A	.	.	.
2GM	G:maj	8g]	_	8r	.	.	142.346	.	voice
.	.	8r	.	8d 8g 8b	Be-	.	.	.	.
.	.	4r	.	8d 8g 8b	-cause	.	.	.	.
.	.	.	.	8e 8g 8cc	your	.	.	.	.
=73	=73	=73	=73	=73	=73	=73	=73	=73	=73
*>Letter>D	*>Letter>D	*>Letter>D	*>Letter>D	*>Letter>D	*>Letter>D	*>Letter>D	*>Letter>D	*>Letter>D	*>Letter>D
*>Label>Chorus	*>Label>Chorus	*>Label>Chorus	*>Label>Chorus	*>Label>Chorus	*>Label>Chorus	*>Label>Chorus	*>Label>Chorus	*>Label>Chorus	*>Label>Chorus
2CM	C:maj	4r	.	8e 8g 8cc	kiss	.	143.334	newline	voice
.	.	.	.	8r	.	.	.	.	.
.	.	8e	Your	4r	.	.	.	.	.
.	.	8d	kiss	.	.	C	.	.	.
2GM	G:maj/4	4r	.	2r	.	.	144.321	.	voice
.	.	8d	is	.	.	.	.	.	.
.	.	[8c	on	.	.	.	.	.	.
=74	=74	=74	=74	=74	=74	=74	=74	=74	=74
2Am	A:min/b3	4c]	_	2r	.	.	145.307	.	voice
.	.	8G	my	.	.	.	.	.	.
.	.	8d	list	.	.	C	.	.	.
2GM	G:maj/4	8r	.	8r	.	.	146.294	.	voice
.	.	8d	be-	8B 8d 8g	Be-	.	.	.	.
.	.	8d	-cause	8B 8d 8g	-cause	.	.	.	.
.	.	8e-	your	8B- 8e- 8g	your	.	.	.	.
=75	=75	=75	=75	=75	=75	=75	=75	=75	=75
1Cmm	C:min7	8e-	kiss	8B- 8e- 8g	kiss	C	147.281	.	voice
.	.	8r	.	8r	.	.	.	.	.
.	.	8g	your	4r	.	.	.	.	.
.	.	8f	kiss	.	.	C	.	.	.
.	.	4r	.	2r	.	.	.	.	.
.	.	8d	I	.	.	.	.	.	.
.	.	[8e-	can't	.	.	.	.	.	.
=76	=76	=76	=76	=76	=76	=76	=76	=76	=76
1Cmm	C:min7	8e-]	_	2r	.	.	149.254	.	voice
.	.	8g	re-	.	.	.	.	.	.
.	.	8c	-sist	.	.	C	.	.	.
.	.	8r	.	.	.	.	.	.	.
.	.	8r	.	8r	.	.	.	.	.
.	.	8g	be	8c 8a	be-	.	.	.	.
.	.	8g	cause	8c 8a	-cause	.	.	.	.
.	.	8g	your	8c 8a	your	.	.	.	.
=77	=77	=77	=77	=77	=77	=77	=77	=77	=77
1FM	F:maj	16g	kiss	4c 4f 4a	kiss	C	151.227	.	voice
.	.	8.f	_	.	.	.	.	.	.
.	.	8f	is	8c 8f 8a	is	.	.	.	.
.	.	[8f	what	[8c [8f [8a	what	.	.	.	.
.	.	8f]	_	8c] 8f] 8a]	_	.	.	.	.
.	.	8c	I	8c 8f 8a	I	.	.	.	.
.	.	8c	miss	8c 8f 8a	miss	C	.	.	.
.	.	8r	.	8r	.	.	.	.	.
=78	=78	=78	=78	=78	=78	=78	=78	=78	=78
1FM	F:maj	4r	.	1r	.	.	153.201	.	voice
.	.	8c	when	.	.	.	.	.	.
.	.	8c	I	.	.	.	.	.	.
.	.	8e	turn	.	.	.	.	.	.
.	.	8g	out	.	.	.	.	.	.
.	.	8e	the	.	.	.	.	.	.
.	.	8dq	_	.	.	.	.	.	.
.	.	8g	light	.	.	A	.	.	.
=79	=79	=79	=79	=79	=79	=79	=79	=79	=79
1CM	C:maj	[1e	_	1r	.	.	155.174	.	voice
=80	=80	=80	=80	=80	=80	=80	=80	=80	=80
1CM	C:maj	1e]	_	1r	.	.	157.147	.	voice
=81	=81	=81	=81	=81	=81	=81	=81	=81	=81
*>Letter>E	*>Letter>E	*>Letter>E	*>Letter>E	*>Letter>E	*>Letter>E	*>Letter>E	*>Letter>E	*>Letter>E	*>Letter>E
*>Label>Solo	*>Label>Solo	*>Label>Solo	*>Label>Solo	*>Label>Solo	*>Label>Solo	*>Label>Solo	*>Label>Solo	*>Label>Solo	*>Label>Solo
1GM	G:maj/4	[8g	_	1r	.	.	159.12	newline	electric guitar
.	.	16.g]	_	.	.	.	.	.	.
.	.	32f	_	.	.	.	.	.	.
.	.	16.g	_	.	.	.	.	.	.
.	.	32f	_	.	.	.	.	.	.
.	.	16.g	_	.	.	.	.	.	.
.	.	32f	_	.	.	.	.	.	.
.	.	8g	_	.	.	.	.	.	.
.	.	8r	.	.	.	.	.	.	.
.	.	4r	.	.	.	.	.	.	.
=82	=82	=82	=82	=82	=82	=82	=82	=82	=82
1GM	G:maj/4	1r	.	1r	.	.	161.093	.	electric guitar
=83	=83	=83	=83	=83	=83	=83	=83	=83	=83
1FM	F:maj	1r	.	1r	.	.	163.065	.	electric guitar
=84	=84	=84	=84	=84	=84	=84	=84	=84	=84
1FM	F:maj	1r	.	1r	.	.	165.038	.	electric guitar
=85	=85	=85	=85	=85	=85	=85	=85	=85	=85
1Adm	A:hdim7/b5	1r	.	1r	.	.	167.01	.	electric guitar
=86	=86	=86	=86	=86	=86	=86	=86	=86	=86
1Adm	A:hdim7/b5	1r	.	1r	.	.	168.983	.	electric guitar
=87	=87	=87	=87	=87	=87	=87	=87	=87	=87
1Dmm	D:min7	1r	.	1r	.	.	170.955	.	electric guitar
=88	=88	=88	=88	=88	=88	=88	=88	=88	=88
*	*	*clefG2	*	*	*	*	*	*	*
.	.	8ffq	_	.	.	.	.	.	.
1GMm	G:11	[1gg	Ah	2r	.	.	172.927	.	electric guitar
.	.	.	.	8r	.	.	.	.	.
.	.	.	.	8B 8d 8g	Be-	.	.	.	.
.	.	.	.	8B 8d 8g	-cause	.	.	.	.
.	.	.	.	8c 8e 8g	your	.	.	.	.
=89	=89	=89	=89	=89	=89	=89	=89	=89	=89
*>Letter>D	*>Letter>D	*>Letter>D	*>Letter>D	*>Letter>D	*>Letter>D	*>Letter>D	*>Letter>D	*>Letter>D	*>Letter>D
*>Label>Outro	*>Label>Outro	*>Label>Outro	*>Label>Outro	*>Label>Outro	*>Label>Outro	*>Label>Outro	*>Label>Outro	*>Label>Outro	*>Label>Outro
2CM	C:maj	8gg]	_	8c 8e 8g	kiss	.	174.9	newline	voice
.	.	8r	.	8r	.	.	.	.	.
.	.	8gq	_	.	.	.	.	.	.
.	.	4a	Your	4r	.	.	.	.	.
2GM	G:maj/4	4g	kiss	2r	.	C	175.884	.	voice
.	.	8e	is	.	.	.	.	.	.
.	.	8gq	_	.	.	.	.	.	.
.	.	[8a	on	.	.	.	.	.	.
=90	=90	=90	=90	=90	=90	=90	=90	=90	=90
2Am	A:min/b3	8a]	_	2r	.	.	176.868	.	voice
.	.	8eq	_	.	.	.	.	.	.
.	.	8e	my	.	.	.	.	.	.
.	.	4g	list	.	.	C	.	.	.
2GM	G:maj/4	2r	.	8r	.	.	177.853	.	voice
.	.	.	.	8B 8d 8g	Be-	.	.	.	.
.	.	.	.	8B 8d 8g	-cause	.	.	.	.
.	.	.	.	8B- 8e- 8g	your	.	.	.	.
=91	=91	=91	=91	=91	=91	=91	=91	=91	=91
1Cmm	C:min7	8r	.	8B- 8e- 8g	kiss	.	178.837	.	voice
.	.	8aq	_	.	.	.	.	.	.
.	.	4cc	Your	8r	.	.	.	.	.
.	.	.	.	4r	.	.	.	.	.
.	.	8a	_	.	.	.	.	.	.
.	.	4f	kiss	2r	.	C	.	.	.
.	.	8e-	is	.	.	.	.	.	.
.	.	8fq	_	.	.	.	.	.	.
.	.	[8g	on	.	.	.	.	.	.
=92	=92	=92	=92	=92	=92	=92	=92	=92	=92
1Cmm	C:min7	8g]	_	2r	.	.	180.806	.	voice
.	.	8f	my	.	.	.	.	.	.
.	.	4f	list	.	.	C	.	.	.
.	.	8r	.	8r	.	.	.	.	.
.	.	8g	Be-	8c 8a	Be-	.	.	.	.
.	.	8g	-cause	8c 8a	-cause	.	.	.	.
.	.	8g	your	8c 8a	your	.	.	.	.
=93	=93	=93	=93	=93	=93	=93	=93	=93	=93
1FM	F:maj	16g	kiss	4c 4f 4a	kiss	C	182.774	.	voice
.	.	8.f	_	.	.	.	.	.	.
.	.	8f	is	8c 8f 8a	is	.	.	.	.
.	.	[8f	on	[8c [8f [8a	on	.	.	.	.
.	.	8f]	_	8c] 8f] 8a]	_	.	.	.	.
.	.	8c	my	8c 8f 8a	my	.	.	.	.
.	.	8c	list	8c 8f 8a	list	C	.	.	.
.	.	8r	.	8r	.	.	.	.	.
=94	=94	=94	=94	=94	=94	=94	=94	=94	=94
1FM	F:maj	4r	.	1r	.	.	184.743	.	voice
.	.	8c	of	.	.	.	.	.	.
.	.	8c	the	.	.	.	.	.	.
.	.	8e	best	.	.	.	.	.	.
.	.	8g	things	.	.	.	.	.	.
.	.	8e	in	.	.	.	.	.	.
.	.	[8g	life,	.	.	A	.	.	.
=95	=95	=95	=95	=95	=95	=95	=95	=95	=95
1CM	C:maj	2g_	_	4.B 4.d 4.g	Ah	.	186.711	.	voice
.	.	.	.	[8c [8e [8g	_	.	.	.	.
.	.	8g]	_	4c] 4e] 4g]	_	.	.	.	.
.	.	8e	_	.	.	.	.	.	.
.	.	16gQ	_,	.	.	.	.	.	.
.	.	[16aQ	_	.	.	.	.	.	.
.	.	[4a	_	4B 4d 4g	_	.	.	.	.
=96	=96	=96	=96	=96	=96	=96	=96	=96	=96
1CM	C:maj	8a]	_	8r	.	.	188.68	.	voice
.	.	4g	oh	8B 8d	ah!	.	.	.	.
.	.	.	.	8c 8e	_	.	.	.	.
.	.	8~e	man!	[8d [8f	_	.	.	.	.
.	.	8~d	_	8d] 8f]	_	.	.	.	.
.	.	8e	Be-	8B 8d 8g	Be-	.	.	.	.
.	.	8e	-cause	8B 8d 8g	-cause	.	.	.	.
.	.	8a	your	8c 8e 8g	your	.	.	.	.
=97	=97	=97	=97	=97	=97	=97	=97	=97	=97
*	*	*clefF4	*	*	*	*	*	*	*
2CM	C:maj	8g	kiss	8e 8g 8cc	kiss	C	190.649	newline	voice
.	.	8r	.	8r	.	.	.	.	.
.	.	8dq	_	.	.	.	.	.	.
.	.	4e	Your	4r	.	.	.	.	.
.	.	8dq	_	.	.	.	.	.	.
2GM	G:maj/4	4G	kiss	2r	.	C	191.633	.	voice
.	.	8G	is	.	.	.	.	.	.
.	.	[8c	on	.	.	.	.	.	.
=98	=98	=98	=98	=98	=98	=98	=98	=98	=98
2Am	A:min/b3	8c]	_	2r	.	.	192.618	.	voice
.	.	8G	my	.	.	.	.	.	.
.	.	4d	list	.	.	C	.	.	.
2GM	G:maj/4	2r	.	8r	.	.	193.603	.	voice
.	.	.	.	8B 8d 8g	Be-	.	.	.	.
.	.	.	.	8B 8d 8g	-cause	.	.	.	.
.	.	.	.	8B- 8e- 8g	your	.	.	.	.
=99	=99	=99	=99	=99	=99	=99	=99	=99	=99
*	*	*clefG2	*	*	*	*	*	*	*
1Cmm	C:min7	8r	.	8B- 8e- 8g	kiss	.	194.588	.	voice
.	.	8aq	_	.	.	.	.	.	.
.	.	4.cc	Your	8r	.	.	.	.	.
.	.	.	.	4r	.	.	.	.	.
.	.	4f	kiss	2r	.	C	.	.	.
.	.	8e-	I	.	.	.	.	.	.
.	.	8f	can't	.	.	.	.	.	.
=100	=100	=100	=100	=100	=100	=100	=100	=100	=100
1Cmm	C:min7	8e-	re	2r	.	.	196.557	.	voice
.	.	8f#q	_	.	.	.	.	.	.
.	.	8g	sist	.	.	C	.	.	.
.	.	8f#q	_	.	.	.	.	.	.
.	.	8g	_	.	.	.	.	.	.
.	.	8r	.	.	.	.	.	.	.
.	.	8r	.	8r	.	.	.	.	.
.	.	8g	Be-	8c 8a	Be-	.	.	.	.
.	.	8g	-cause	8c 8a	-cause	.	.	.	.
.	.	8g	your	8c 8a	your	.	.	.	.
=101	=101	=101	=101	=101	=101	=101	=101	=101	=101
1FM	F:maj	16g	kiss	4c 4f 4a	kiss	C	198.527	.	voice
.	.	8.f	_	.	.	.	.	.	.
.	.	8f	is	8c 8f 8a	is	.	.	.	.
.	.	[8f	what	[8c [8f [8a	what	.	.	.	.
.	.	8f]	_	8c] 8f] 8a]	_	.	.	.	.
.	.	8c	I	8c 8f 8a	I	.	.	.	.
.	.	8c	miss	8c 8f 8a	miss	C	.	.	.
.	.	8r	.	8r	.	.	.	.	.
=102	=102	=102	=102	=102	=102	=102	=102	=102	=102
1FM	F:maj	4r	.	1r	.	.	200.497	.	voice
.	.	8c	when	.	.	.	.	.	.
.	.	8c	I	.	.	.	.	.	.
.	.	8e	turn	.	.	.	.	.	.
.	.	8g	out	.	.	.	.	.	.
.	.	8e	the	.	.	.	.	.	.
.	.	8dq	_	.	.	.	.	.	.
.	.	8g	light	.	.	A	.	.	.
=103	=103	=103	=103	=103	=103	=103	=103	=103	=103
1CM	C:maj	1e	_	4.B 4.d 4.g	Ah	.	202.466	.	voice
.	.	.	.	[8c [8e [8g	_	.	.	.	.
.	.	.	.	4c] 4e] 4g]	_	.	.	.	.
.	.	.	.	4B 4d 4g	_	.	.	.	.
=104	=104	=104	=104	=104	=104	=104	=104	=104	=104
.	.	16fQ	_	.	.	.	.	.	.
1CM	C:maj	16.g	_	8r	.	.	204.436	.	voice
.	.	32f	_	.	.	.	.	.	.
.	.	16.g	_	8B 8d	ah!	.	.	.	.
.	.	32g	_	.	.	.	.	.	.
.	.	8G	_	8c 8e	_	.	.	.	.
.	.	8g	_	[8d [8f	_	.	.	.	.
.	.	8r	.	8d] 8f]	_	.	.	.	.
.	.	8g	Be-	8B 8d 8g	Be-	.	.	.	.
.	.	8g	-cause	8B 8d 8g	-cause	.	.	.	.
.	.	8e	your	8c 8e 8g	your	.	.	.	.
=105	=105	=105	=105	=105	=105	=105	=105	=105	=105
2CM	C:maj	16g	kiss	8c 8e 8g	kiss	C	206.406	newline	fadeout
.	.	16a	_	.	.	.	.	.	.
.	.	8r	.	8r	.	.	.	.	.
.	.	8fq	_	.	.	.	.	.	.
.	.	8g	Your	4r	.	.	.	.	.
.	.	8d	_	.	.	.	.	.	.
2GM	G:maj/4	4d	kiss	2r	.	C	207.393	.	fadeout
.	.	8d	is	.	.	.	.	.	.
.	.	[8c	on	.	.	.	.	.	.
=106	=106	=106	=106	=106	=106	=106	=106	=106	=106
2Am	A:min/b3	8c]	_	2r	.	.	208.38	.	fadeout
.	.	16c	my	.	.	.	.	.	.
.	.	8.d	_	.	.	.	.	.	.
.	.	8d	list	.	.	C	.	.	.
2GM	G:maj/4	2r	.	8r	.	.	209.367	.	fadeout
.	.	.	.	8B 8d 8g	_	.	.	.	.
.	.	.	.	8B 8d 8g	Be-	.	.	.	.
.	.	.	.	8B- 8e- 8g	-cause	.	.	.	.
=107	=107	=107	=107	=107	=107	=107	=107	=107	=107
1Cmm	C:min7	8r	.	8B- 8e- 8g	your	.	210.355	.	fadeout
.	.	8aq	_	.	.	.	.	.	.
.	.	4.cc	Your	8r	.	.	.	.	.
.	.	.	.	4r	.	.	.	.	.
.	.	4f	kiss	2r	.	C	.	.	.
.	.	8e-	I	.	.	.	.	.	.
.	.	8f	can't	.	.	.	.	.	.
=108	=108	=108	=108	=108	=108	=108	=108	=108	=108
1Cmm	C:min7	8e-	re	2r	.	.	212.329	.	fadeout
.	.	8f#q	_	.	.	.	.	.	.
.	.	8g	sist	.	.	C	.	.	.
.	.	8f#q	_	.	.	.	.	.	.
.	.	8g	_	.	.	.	.	.	.
.	.	8r	.	.	.	.	.	.	.
.	.	8g	Be-	8r	.	.	.	.	.
.	.	8g	-cause	8c 8a	_	.	.	.	.
.	.	8g	your	8c 8a	_	.	.	.	.
.	.	8r	.	8c 8a	_	.	.	.	.
=109	=109	=109	=109	=109	=109	=109	=109	=109	=109
1FM	F:maj	16g	kiss	4c 4f 4a	kiss	C	214.304	.	fadeout
.	.	8.f	_	.	.	.	.	.	.
.	.	8f	is	8c 8f 8a	is	.	.	.	.
.	.	[8f	on	[8c [8f [8a	on	.	.	.	.
.	.	8f]	_	8c] 8f] 8a]	_	.	.	.	.
.	.	8c	my	8c 8f 8a	my	.	.	.	.
.	.	8c	list	8c 8f 8a	list	C	.	.	.
.	.	8r	.	8r	.	.	.	.	.
=110	=110	=110	=110	=110	=110	=110	=110	=110	=110
1FM	F:maj	4r	.	1r	.	.	216.279	.	fadeout
.	.	8c	of	.	.	.	.	.	.
.	.	8c	the	.	.	.	.	.	.
.	.	8e	best	.	.	.	.	.	.
.	.	8g	things	.	.	.	.	.	.
.	.	8e	in	.	.	.	.	.	.
.	.	8dq	_	.	.	.	.	.	.
.	.	8g	life	.	.	A	.	.	.
=111	=111	=111	=111	=111	=111	=111	=111	=111	=111
1CM	C:maj	[2.e	_	4.B 4.d 4.g	Ah	.	218.253	.	fadeout
.	.	.	.	[8c [8e [8g	_	.	.	.	.
.	.	.	.	4c] 4e] 4g]	_	.	.	.	.
.	.	8e]	_	4B 4d 4g	_	.	.	.	.
.	.	8r	.	.	.	.	.	.	.
=112	=112	=112	=112	=112	=112	=112	=112	=112	=112
1CM	C:maj	8r	.	8r	.	.	220.228	.	fadeout
.	.	8e	Oh,	8B 8d	ah!	.	.	.	.
.	.	8f	_	8c 8e	_	.	.	.	.
.	.	8g	_	[8d [8f	_	.	.	.	.
.	.	8a	_	8d] 8f]	_	.	.	.	.
.	.	8g	be-	8B 8d 8g	Be-	.	.	.	.
.	.	8g	-cause	8B 8d 8g	-cause	.	.	.	.
.	.	8e	your	8c 8e 8g	your	.	.	.	.
=113	=113	=113	=113	=113	=113	=113	=113	=113	=113
2CM	C:maj	16g	kiss	8c 8e 8g	kiss	C	222.203	newline	voice
.	.	16a	_	.	.	.	.	.	.
.	.	8r	.	8r	.	.	.	.	.
.	.	8fq	_	.	.	.	.	.	.
.	.	8g	Your	4r	.	.	.	.	.
.	.	8d	_	.	.	.	.	.	.
2GM	G:maj/4	4d	kiss	2r	.	C	222.821	.	voice
*	*	*clefF4	*	*	*	*	*	*	*
.	.	8d	is	.	.	.	.	.	.
.	.	[8c	on	.	.	.	.	.	.
=114	=114	=114	=114	=114	=114	=114	=114	=114	=114
2Am	A:min/b3	4c]	_	2r	.	.	223.44	.	voice
.	.	8G	my	.	.	.	.	.	.
.	.	8d	list	.	.	C	.	.	.
2GM	G:maj/4	8r	.	8r	.	.	224.059	.	voice
.	.	8d	Be-	8B 8d 8g	Be-	.	.	.	.
.	.	8d	-cause	8B 8d 8g	-cause	.	.	.	.
.	.	8e-	your	8B- 8e- 8g	your	.	.	.	.
=115	=115	=115	=115	=115	=115	=115	=115	=115	=115
*	*	*clefG2	*	*	*	*	*	*	*
1Cmm	C:min7	8r	.	8B- 8e- 8g	kiss	.	224.678	.	voice
.	.	8aq	_	.	.	.	.	.	.
.	.	[4.cc	your	8r	.	.	.	.	.
.	.	.	.	4r	.	.	.	.	.
.	.	8cc]	_	2r	.	.	.	.	.
.	.	8f	kiss,	.	.	C	.	.	.
.	.	8e-	I	.	.	.	.	.	.
.	.	8f	can't	.	.	.	.	.	.
=116	=116	=116	=116	=116	=116	=116	=116	=116	=116
1Cmm	C:min7	1r	.	1r	.	.	225.916	.	voice
=117	=117	=117	=117	=117	=117	=117	=117	=117	=117
1FM	F:maj	1r	.	1r	.	.	227.154	.	voice
1r;	1r	r;	.	r;	.	.	228.392	.	r
1r;	1r	r;	.	r;	.	.	231.34	.	r
*-	*-	*-	*-	*-	*-	*-	*-	*-	*-
!!!BillboardChartDate: 1981/01/31
!!!BillboardPeak: 1
!!!BillboardWeeksOnChart: 23
!!!COC: Daryl Hall & John Oates
!!!ENC: Nathaniel Condit-Schultz
!!!EST: Awating manual error checking and editing.
!!!OTL: Kiss On My List
!!!RDF**chordsym: original McGill chord annotation + (implied pitch class set, with bass pitch in first position)
!!!RDF**harmony: **recip + pitch class of root + harmonic quality
!!!RDF**leadinstrument: original McGill primary instrumentation annotation
!!!RDF**phrase: newline = linebreak in original McGill transcription
!!!RDF**timestamp: McGill audio timestamp in seconds
!!!RDT: 2017/01/12/
!!!SampleActualRank: 55
!!!SampleID#: 0018
!!!SampleTargetRank: 56
!!!MBID: 4d8c74f9-4b81-423c-8822-f40ecaa4f940
